assets/logo-tictok.svg

<svg xmlns="http://www.w3.org/2000/svg" viewBox="0 0 640 640"><!--!Font Awesome Free 7.1.0 by @fontawesome - https://fontawesome.com License - https://fontawesome.com/license/free Copyright 2025 Fonticons, Inc.--><path d="M544.5 273.9c-44 .1-87-13.6-122.8-39.2v178.7c0 33.1-10.1 65.4-29 92.6s-45.6 48-76.6 59.6-64.8 13.5-96.9 5.3-60.9-25.9-82.7-50.8-35.3-56-39-88.9 2.9-66.1 18.6-95.2 40-52.7 69.6-67.7 62.9-20.5 95.7-16v89.9c-15-4.7-31.1-4.6-46 .4s-27.9 14.6-37 27.3-14 28.1-13.9 43.9 5.2 31 14.5 43.7 22.4 22.1 37.4 26.9 31.1 4.8 46-.1 28-14.4 37.2-27.1 14.2-28.1 14.2-43.8V64h88c-.1 7.4.6 14.9 1.9 22.2 3.1 16.3 9.4 31.9 18.7 45.7s21.3 25.6 35.2 34.6c19.9 13.1 43.2 20.1 67 20.1V274z"/></svg>

<svg xmlns="http://www.w3.org/2000/svg" viewBox="0 0 640 640"><!--!Font Awesome Free 7.1.0 by @fontawesome - https://fontawesome.com License - https://fontawesome.com/license/free Copyright 2025 Fonticons, Inc.--><path d="M544.5 273.9C500.5 274 457.5 260.3 421.7 234.7L421.7 413.4C421.7 446.5 411.6 478.8 392.7 506C373.8 533.2 347.1 554 316.1 565.6C285.1 577.2 251.3 579.1 219.2 570.9C187.1 562.7 158.3 545 136.5 520.1C114.7 495.2 101.2 464.1 97.5 431.2C93.8 398.3 100.4 365.1 116.1 336C131.8 306.9 156.1 283.3 185.7 268.3C215.3 253.3 248.6 247.8 281.4 252.3L281.4 342.2C266.4 337.5 250.3 337.6 235.4 342.6C220.5 347.6 207.5 357.2 198.4 369.9C189.3 382.6 184.4 398 184.5 413.8C184.6 429.6 189.7 444.8 199 457.5C208.3 470.2 221.4 479.6 236.4 484.4C251.4 489.2 267.5 489.2 282.4 484.3C297.3 479.4 310.4 469.9 319.6 457.2C328.8 444.5 333.8 429.1 333.8 413.4L333.8 64L421.8 64C421.7 71.4 422.4 78.9 423.7 86.2C426.8 102.5 433.1 118.1 442.4 131.9C451.7 145.7 463.7 157.5 477.6 166.5C497.5 179.6 520.8 186.6 544.6 186.6L544.6 274z"/></svg>
